X:523
T:Vals # 523
M:3/4
L:1/8
K: C
Q: 160
C2E2G2| e3f ed|e2c2A2|F3G FE|F2GA Bc|d3e dc| d2B2G2|G3A GE|C2E2G2|
e3f ed|e2c2A2|F3G FE|F2GA Bc|d3/d/ dd dd|dG GG AB|1c4z2:|2c4G2|:Gc ec Gc|
ef ge ge|dB dB GB| de fe fd|Gc ec Gc| ef ge ge| dB dB GB|1c4G2:|2c4z2||

